X:70
T:B070-  The clear cavalier
Q:1/4=120
L:1/4
M:3/2
K:F
F3DGA|c2f3d|c3AF3/2G/2|A6|f3afc|d3/2c/2 d/2e/2f(A2|\
A)FBGA3/2 A/2|d6||
M:6/4
L:1/4
A2Bc2d|c2AG2F|c2AB2c|\
(d3d2)e|f2ef2g|a2gf2e|d2cdG2|(c3c2)||g|\
g2ef2g|a3e3|fd2e2A|d3f3|A3/2G/2AB3/2c/2A|G2FE3/2D/2C|\
F3/2G/2AA3/2G/2A|B3/2c/2dd3/2c/2d|G3/2d/2gg3/2f/2g|cdee3/2f/2g|\
a3/2f/2ag3/2e/2g| f3/2d/2fe3/2d/2c|f3/2g/2ad3/2f/2e|(f3f3)|]

